icons/scales-fill.svg

<svg viewBox="0 0 24 24" fill="currentColor" xmlns="http://www.w3.org/2000/svg"><path d="M12.998 2V3H19.998V5H12.998V19H16.998V21H6.99805V19H10.998V5H3.99805V3H10.998V2H12.998ZM4.99805 6.34315L7.82647 9.17157C8.55033 9.89543 8.99805 10.8954 8.99805 12C8.99805 14.2091 7.20719 16 4.99805 16C2.78891 16 0.998047 14.2091 0.998047 12C0.998047 10.8954 1.44576 9.89543 2.16962 9.17157L4.99805 6.34315ZM18.998 6.34315L21.8265 9.17157C22.5503 9.89543 22.998 10.8954 22.998 12C22.998 14.2091 21.2072 16 18.998 16C16.7889 16 14.998 14.2091 14.998 12C14.998 10.8954 15.4458 9.89543 16.1696 9.17157L18.998 6.34315ZM18.998 9.17157L17.5838 10.5858C17.2099 10.9597 16.998 11.4606 16.998 12L20.998 12.001C20.998 11.4606 20.7862 10.9597 20.4123 10.5858L18.998 9.17157ZM4.99805 9.17157L3.58383 10.5858C3.20988 10.9597 2.99805 11.4606 2.99805 12L6.99805 12.001C6.99805 11.4606 6.78621 10.9597 6.41226 10.5858L4.99805 9.17157Z"/></svg>

<svg xmlns="http://www.w3.org/2000/svg" viewBox="0 0 24 24">
    <g>
        <path fill="none" d="M0 0H24V24H0z"/>
        <path d="M13 2v1h7v2h-7v14h4v2H7v-2h4V5H4V3h7V2h2zM5 6.343l2.828 2.829C8.552 9.895 9 10.895 9 12c0 2.21-1.79 4-4 4s-4-1.79-4-4c0-1.105.448-2.105 1.172-2.828L5 6.343zm14 0l2.828 2.829C22.552 9.895 23 10.895 23 12c0 2.21-1.79 4-4 4s-4-1.79-4-4c0-1.105.448-2.105 1.172-2.828L19 6.343zm0 2.829l-1.414 1.414C17.212 10.96 17 11.46 17 12l4 .001c0-.54-.212-1.041-.586-1.415L19 9.172zm-14 0l-1.414 1.414C3.212 10.96 3 11.46 3 12l4 .001c0-.54-.212-1.041-.586-1.415L5 9.172z"/>
    </g>
</svg>
